svgs/thin/unlock.svg

<svg xmlns="http://www.w3.org/2000/svg" viewBox="0 0 448 512"><!--! Font Awesome Pro 6.6.0 by @fontawesome - https://fontawesome.com License - https://fontawesome.com/license (Commercial License) Copyright 2024 Fonticons, Inc. --><path d="M112 128c0-61.9 50.1-112 112-112c51.5 0 94.9 34.8 108 82.1c1.2 4.3 5.6 6.8 9.8 5.6s6.8-5.6 5.6-9.8C332.5 39.8 282.9 0 224 0C153.3 0 96 57.3 96 128l0 64-32 0c-35.3 0-64 28.7-64 64L0 448c0 35.3 28.7 64 64 64l320 0c35.3 0 64-28.7 64-64l0-192c0-35.3-28.7-64-64-64l-272 0 0-64zM96 208l16 0 272 0c26.5 0 48 21.5 48 48l0 192c0 26.5-21.5 48-48 48L64 496c-26.5 0-48-21.5-48-48l0-192c0-26.5 21.5-48 48-48l32 0z"/></svg>

<svg xmlns="http://www.w3.org/2000/svg" viewBox="0 0 448 512"><!--! Font Awesome Pro 6.4.0 by @fontawesome - https://fontawesome.com License - https://fontawesome.com/license (Commercial License) Copyright 2023 Fonticons, Inc. --><path d="M112 128c0-61.9 50.1-112 112-112c51.5 0 94.9 34.8 108 82.1c1.2 4.3 5.6 6.8 9.8 5.6s6.8-5.6 5.6-9.8C332.5 39.8 282.9 0 224 0C153.3 0 96 57.3 96 128v64H64c-35.3 0-64 28.7-64 64V448c0 35.3 28.7 64 64 64H384c35.3 0 64-28.7 64-64V256c0-35.3-28.7-64-64-64H112V128zM96 208h16H384c26.5 0 48 21.5 48 48V448c0 26.5-21.5 48-48 48H64c-26.5 0-48-21.5-48-48V256c0-26.5 21.5-48 48-48H96z"/></svg>
